X: 87
T: No_25_Song_to_Overcome_Fear.krn
N: Derived from No_25_Song_to_Overcome_Fear.krn
%%abc-version 2.0
%%abcx-abcm2ps-target-version 5.9.1 (29 Sep 2008)
%%abc-creator hum2abc beta
%%abcx-conversion-date 2019/03/15 08:37:56
%%humdrum-veritas 1235124928
%%humdrum-veritas-data 3409020860
%%linebreak <none>
%%barnumbers 0
L: 1/8
M: 2/4
K: B clef=bass
[K:clef=bass][M:2/4]G,2D3/C/ | 
B,/B,3/A,2 | 
G,2G,E,/E,/ | 
G,3/G,/ A,G,/G,/ | 
G,3/E,/ G,3/E,/ | 
D,2D,/D,3/ | 
[M:3/4]G,E,G,2G,G, [I:setbarnb 8]| 
A,G,G,2G,E,/E,/ ||  
[M:2/4]G,G, G,G, ||  
[M:3/4]D,2F,E, D,/D,3/ | 
(D,4D,3/)D,/ :|]  



